SVG_Azure_All/Help and Support.svg

<?xml version="1.0" encoding="UTF-8" standalone="no"?>
<!-- Generated by Microsoft Visio, SVG Export Help and Support.svg Page-1 -->

<svg
   xmlns:dc="http://purl.org/dc/elements/1.1/"
   xmlns:cc="http://creativecommons.org/ns#"
   xmlns:rdf="http://www.w3.org/1999/02/22-rdf-syntax-ns#"
   xmlns:svg="http://www.w3.org/2000/svg"
   xmlns="http://www.w3.org/2000/svg"
   xmlns:sodipodi="http://sodipodi.sourceforge.net/DTD/sodipodi-0.dtd"
   xmlns:inkscape="http://www.inkscape.org/namespaces/inkscape"
   width="0.63016331in"
   height="0.78809935in"
   viewBox="0 0 45.371664 56.743225"
   xml:space="preserve"
   class="st4"
   version="1.1"
   id="svg41"
   sodipodi:docname="Help and Support.svg"
   style="font-size:12px;overflow:visible;color-interpolation-filters:sRGB;fill:none;fill-rule:evenodd;stroke-linecap:square;stroke-miterlimit:3"
   inkscape:version="0.92.5 (2060ec1f9f, 2020-04-08)"><metadata
   id="metadata45"><rdf:RDF><cc:Work
       rdf:about=""><dc:format>image/svg+xml</dc:format><dc:type
         rdf:resource="http://purl.org/dc/dcmitype/StillImage" /></cc:Work></rdf:RDF></metadata><sodipodi:namedview
   pagecolor="#ffffff"
   bordercolor="#666666"
   borderopacity="1"
   objecttolerance="10"
   gridtolerance="10"
   guidetolerance="10"
   inkscape:pageopacity="0"
   inkscape:pageshadow="2"
   inkscape:window-width="640"
   inkscape:window-height="480"
   id="namedview43"
   showgrid="false"
   inkscape:zoom="1.4187712"
   inkscape:cx="30.250247"
   inkscape:cy="37.821744"
   inkscape:window-x="0"
   inkscape:window-y="0"
   inkscape:window-maximized="0"
   inkscape:current-layer="svg41" />
	<style
   type="text/css"
   id="style2">
	<![CDATA[
		.st1 {fill:url(#grad0-6);stroke:none;stroke-linecap:butt;stroke-width:34}
		.st2 {fill:#ffffff;fill-opacity:0.8;stroke:none;stroke-linecap:butt;stroke-width:34}
		.st3 {fill:#767676;stroke:none;stroke-linecap:butt;stroke-width:34}
		.st4 {fill:none;fill-rule:evenodd;font-size:12px;overflow:visible;stroke-linecap:square;stroke-miterlimit:3}
	]]>
	</style>

	<defs
   id="Patterns_And_Gradients">
		<linearGradient
   id="grad0-6"
   x1="-0.023017081"
   y1="70.374935"
   x2="47.848214"
   y2="70.374935"
   gradientTransform="scale(0.94778877,1.0550874)"
   gradientUnits="userSpaceOnUse">
			<stop
   offset="0.225"
   stop-color="#32d4f5"
   stop-opacity="1"
   id="stop4" />
			<stop
   offset="0.39"
   stop-color="#30cff1"
   stop-opacity="1"
   id="stop6" />
			<stop
   offset="0.585"
   stop-color="#2bc0e4"
   stop-opacity="1"
   id="stop8" />
			<stop
   offset="0.795"
   stop-color="#23a9ce"
   stop-opacity="1"
   id="stop10" />
			<stop
   offset="1"
   stop-color="#198ab3"
   stop-opacity="1"
   id="stop12" />
		</linearGradient>
	</defs>
	<g
   id="g39"
   transform="translate(-34.000475,-34.001117)">
		<title
   id="title16">Page-1</title>
		<g
   id="group4292-1"
   transform="translate(34.0221,-34.0157)">
			<title
   id="title18">Help and Support</title>
			<g
   id="group4293-2">
				<title
   id="title20">g8</title>
				<g
   id="shape4294-3">
					<title
   id="title22">path2</title>
					<path
   d="M 45.32,120.2 C 44.02,109.7 38.93,100.8 29.55,97.92 A 12.7087,12.853 -180 1 0 15.65,97.81 C 6.2,100.37 1.15,108.43 0,120.23 a 4.05033,4.09631 -180 0 0 3.62,4.5 3.58298,3.62366 -180 0 0 0.41,0.03 H 41.3 a 4.03163,4.0774 -180 0 0 4.05,-4.07 4.19676,4.24441 -180 0 0 -0.03,-0.49 z"
   class="st1"
   id="path24"
   inkscape:connector-curvature="0"
   style="fill:url(#grad0-6);stroke:none;stroke-width:34;stroke-linecap:butt" />
				</g>
				<g
   id="shape4295-7"
   transform="translate(15.8119,-8.82282)">
					<title
   id="title27">path4</title>
					<path
   d="M 6.89,108.8 A 12.6744,12.8183 0 0 1 0,106.74 l 6.82,18.02 6.77,-17.9 a 12.6588,12.8025 0 0 1 -6.7,1.94 z"
   class="st2"
   id="path29"
   inkscape:connector-curvature="0"
   style="fill:#ffffff;fill-opacity:0.8;stroke:none;stroke-width:34;stroke-linecap:butt" />
				</g>
				<g
   id="shape4296-9"
   transform="translate(6.86326,-26.4259)">
					<title
   id="title32">path6</title>
					<path
   d="m 34.91,117.24 a 19.9089,20.1349 -180 0 0 -0.29,-8.02 19.3388,19.5583 -180 0 0 -18.15,-14.73 17.27,17.466 -180 0 0 -16.24,8.71 1.83199,1.85279 -180 0 0 0.59,2.56 1.69179,1.711 -180 0 0 2.29,-0.52 14.0671,14.2268 0 0 1 13.16,-7.2 15.8212,16.0008 0 0 1 14.82,11.59 16.3322,16.5176 0 0 1 0.4,6.74 2.91624,2.94934 -180 0 0 -1.67,1.85 l -0.85,2.84 a 2.93069,2.96396 -180 1 0 5.6,1.72 l 0.86,-2.83 a 2.92247,2.95564 -180 0 0 -0.52,-2.71 z"
   class="st3"
   id="path34"
   inkscape:connector-curvature="0"
   style="fill:#767676;stroke:none;stroke-width:34;stroke-linecap:butt" />
				</g>
			</g>
		</g>
	</g>
</svg>

<?xml version="1.0" encoding="UTF-8" standalone="no"?>
<!DOCTYPE svg PUBLIC "-//W3C//DTD SVG 1.1//EN" "http://www.w3.org/Graphics/SVG/1.1/DTD/svg11.dtd">
<!-- Generated by Microsoft Visio, SVG Export Help and Support.svg Page-1 -->
<svg xmlns="http://www.w3.org/2000/svg" xmlns:xlink="http://www.w3.org/1999/xlink" xmlns:ev="http://www.w3.org/2001/xml-events"
		width="1.57467in" height="1.73272in" viewBox="0 0 113.376 124.756" xml:space="preserve" color-interpolation-filters="sRGB"
		class="st4">
	<style type="text/css">
	<![CDATA[
		.st1 {fill:url(#grad0-6);stroke:none;stroke-linecap:butt;stroke-width:34}
		.st2 {fill:#ffffff;fill-opacity:0.8;stroke:none;stroke-linecap:butt;stroke-width:34}
		.st3 {fill:#767676;stroke:none;stroke-linecap:butt;stroke-width:34}
		.st4 {fill:none;fill-rule:evenodd;font-size:12px;overflow:visible;stroke-linecap:square;stroke-miterlimit:3}
	]]>
	</style>

	<defs id="Patterns_And_Gradients">
		<linearGradient id="grad0-6" x1="0" y1="0" x2="1" y2="0" gradientTransform="rotate(84.93979347712 0.5 0.5)">
			<stop offset="0.225" stop-color="#32d4f5" stop-opacity="1"/>
			<stop offset="0.39" stop-color="#30cff1" stop-opacity="1"/>
			<stop offset="0.585" stop-color="#2bc0e4" stop-opacity="1"/>
			<stop offset="0.795" stop-color="#23a9ce" stop-opacity="1"/>
			<stop offset="1" stop-color="#198ab3" stop-opacity="1"/>
		</linearGradient>
	</defs>
	<g>
		<title>Page-1</title>
		<g id="group4199-1" transform="translate(34.0221,-34.0157)">
			<title>Help and Support</title>
			<g id="group4200-2">
				<title>g8</title>
				<g id="shape4201-3">
					<title>path2</title>
					<path d="M45.32 120.2 C44.02 109.7 38.93 100.8 29.55 97.92 A12.7087 12.853 -180 1 0 15.65 97.81 C6.2 100.37 1.15
								 108.43 0 120.23 A4.05033 4.09631 -180 0 0 3.62 124.73 A3.58298 3.62366 -180 0 0 4.03 124.76 L41.3
								 124.76 A4.03163 4.0774 -180 0 0 45.35 120.69 A4.19676 4.24441 -180 0 0 45.32 120.2 Z" class="st1"/>
				</g>
				<g id="shape4202-7" transform="translate(15.8119,-8.82282)">
					<title>path4</title>
					<path d="M6.89 108.8 A12.6744 12.8183 0 0 1 0 106.74 L6.82 124.76 L13.59 106.86 A12.6588 12.8025 0 0 1 6.89 108.8
								 Z" class="st2"/>
				</g>
				<g id="shape4203-9" transform="translate(6.86326,-26.4259)">
					<title>path6</title>
					<path d="M34.91 117.24 A19.9089 20.1349 -180 0 0 34.62 109.22 A19.3388 19.5583 -180 0 0 16.47 94.49 A17.27 17.466
								 -180 0 0 0.23 103.2 A1.83199 1.85279 -180 0 0 0.82 105.76 A1.69179 1.711 -180 0 0 3.11 105.24 A14.0671
								 14.2268 0 0 1 16.27 98.04 A15.8212 16.0008 0 0 1 31.09 109.63 A16.3322 16.5176 0 0 1 31.49 116.37
								 A2.91624 2.94934 -180 0 0 29.82 118.22 L28.97 121.06 A2.93069 2.96396 -180 1 0 34.57 122.78 L35.43
								 119.95 A2.92247 2.95564 -180 0 0 34.91 117.24 Z" class="st3"/>
				</g>
			</g>
		</g>
	</g>
</svg>
